documentation/public/assets/images/02-buttons.svg

<svg width="284" height="42" viewBox="0 0 284 42" fill="none" xmlns="http://www.w3.org/2000/svg">
<rect x="0.5" width="104" height="42" rx="4" fill="#0F67F5"/>
<path d="M25.7344 27V15.5469H30.0547C30.8151 15.5469 31.3958 15.5833 31.7969 15.6562C32.3594 15.75 32.8307 15.9297 33.2109 16.1953C33.5911 16.4557 33.8958 16.8229 34.125 17.2969C34.3594 17.7708 34.4766 18.2917 34.4766 18.8594C34.4766 19.8333 34.1667 20.6589 33.5469 21.3359C32.9271 22.0078 31.8073 22.3438 30.1875 22.3438H27.25V27H25.7344ZM27.25 20.9922H30.2109C31.1901 20.9922 31.8854 20.8099 32.2969 20.4453C32.7083 20.0807 32.9141 19.5677 32.9141 18.9062C32.9141 18.4271 32.7917 18.0182 32.5469 17.6797C32.3073 17.3359 31.9896 17.1094 31.5938 17C31.3385 16.9323 30.8672 16.8984 30.1797 16.8984H27.25V20.9922ZM36.2109 27V18.7031H37.4766V19.9609C37.7995 19.3724 38.0964 18.9844 38.3672 18.7969C38.6432 18.6094 38.9453 18.5156 39.2734 18.5156C39.7474 18.5156 40.2292 18.6667 40.7188 18.9688L40.2344 20.2734C39.8906 20.0703 39.5469 19.9688 39.2031 19.9688C38.8958 19.9688 38.6198 20.0625 38.375 20.25C38.1302 20.4323 37.9557 20.6875 37.8516 21.0156C37.6953 21.5156 37.6172 22.0625 37.6172 22.6562V27H36.2109ZM41.5625 17.1641V15.5469H42.9688V17.1641H41.5625ZM41.5625 27V18.7031H42.9688V27H41.5625ZM45.1172 27V18.7031H46.375V19.8672C46.6354 19.4609 46.9818 19.1354 47.4141 18.8906C47.8464 18.6406 48.3385 18.5156 48.8906 18.5156C49.5052 18.5156 50.0078 18.6432 50.3984 18.8984C50.7943 19.1536 51.0729 19.5104 51.2344 19.9688C51.8906 19 52.7448 18.5156 53.7969 18.5156C54.6198 18.5156 55.2526 18.7448 55.6953 19.2031C56.138 19.6562 56.3594 20.3568 56.3594 21.3047V27H54.9609V21.7734C54.9609 21.2109 54.9141 20.8073 54.8203 20.5625C54.7318 20.3125 54.5677 20.112 54.3281 19.9609C54.0885 19.8099 53.8073 19.7344 53.4844 19.7344C52.901 19.7344 52.4167 19.9297 52.0312 20.3203C51.6458 20.7057 51.4531 21.3255 51.4531 22.1797V27H50.0469V21.6094C50.0469 20.9844 49.9323 20.5156 49.7031 20.2031C49.474 19.8906 49.099 19.7344 48.5781 19.7344C48.1823 19.7344 47.8151 19.8385 47.4766 20.0469C47.1432 20.2552 46.901 20.5599 46.75 20.9609C46.599 21.362 46.5234 21.9401 46.5234 22.6953V27H45.1172ZM63.8594 25.9766C63.3385 26.4193 62.8359 26.7318 62.3516 26.9141C61.8724 27.0964 61.3568 27.1875 60.8047 27.1875C59.8932 27.1875 59.1927 26.9661 58.7031 26.5234C58.2135 26.0755 57.9688 25.5052 57.9688 24.8125C57.9688 24.4062 58.0599 24.0365 58.2422 23.7031C58.4297 23.3646 58.6719 23.0938 58.9688 22.8906C59.2708 22.6875 59.6094 22.5339 59.9844 22.4297C60.2604 22.3568 60.6771 22.2865 61.2344 22.2188C62.3698 22.0833 63.2057 21.9219 63.7422 21.7344C63.7474 21.5417 63.75 21.4193 63.75 21.3672C63.75 20.7943 63.6172 20.3906 63.3516 20.1562C62.9922 19.8385 62.4583 19.6797 61.75 19.6797C61.0885 19.6797 60.599 19.7969 60.2812 20.0312C59.9688 20.2604 59.737 20.6693 59.5859 21.2578L58.2109 21.0703C58.3359 20.4818 58.5417 20.0078 58.8281 19.6484C59.1146 19.2839 59.5286 19.0052 60.0703 18.8125C60.612 18.6146 61.2396 18.5156 61.9531 18.5156C62.6615 18.5156 63.237 18.599 63.6797 18.7656C64.1224 18.9323 64.4479 19.1432 64.6562 19.3984C64.8646 19.6484 65.0104 19.9661 65.0938 20.3516C65.1406 20.5911 65.1641 21.0234 65.1641 21.6484V23.5234C65.1641 24.8307 65.1927 25.6589 65.25 26.0078C65.3125 26.3516 65.4323 26.6823 65.6094 27H64.1406C63.9948 26.7083 63.901 26.3672 63.8594 25.9766ZM63.7422 22.8359C63.2318 23.0443 62.4661 23.2214 61.4453 23.3672C60.8672 23.4505 60.4583 23.5443 60.2188 23.6484C59.9792 23.7526 59.7943 23.9062 59.6641 24.1094C59.5339 24.3073 59.4688 24.5286 59.4688 24.7734C59.4688 25.1484 59.6094 25.4609 59.8906 25.7109C60.1771 25.9609 60.5938 26.0859 61.1406 26.0859C61.6823 26.0859 62.1641 25.9688 62.5859 25.7344C63.0078 25.4948 63.3177 25.1693 63.5156 24.7578C63.6667 24.4401 63.7422 23.9714 63.7422 23.3516V22.8359ZM67.3359 27V18.7031H68.6016V19.9609C68.9245 19.3724 69.2214 18.9844 69.4922 18.7969C69.7682 18.6094 70.0703 18.5156 70.3984 18.5156C70.8724 18.5156 71.3542 18.6667 71.8438 18.9688L71.3594 20.2734C71.0156 20.0703 70.6719 19.9688 70.3281 19.9688C70.0208 19.9688 69.7448 20.0625 69.5 20.25C69.2552 20.4323 69.0807 20.6875 68.9766 21.0156C68.8203 21.5156 68.7422 22.0625 68.7422 22.6562V27H67.3359ZM72.6172 30.1953L72.4609 28.875C72.7682 28.9583 73.0365 29 73.2656 29C73.5781 29 73.8281 28.9479 74.0156 28.8438C74.2031 28.7396 74.3568 28.5938 74.4766 28.4062C74.5651 28.2656 74.7083 27.9167 74.9062 27.3594C74.9323 27.2812 74.974 27.1667 75.0312 27.0156L71.8828 18.7031H73.3984L75.125 23.5078C75.349 24.1172 75.5495 24.7578 75.7266 25.4297C75.888 24.7839 76.0807 24.1536 76.3047 23.5391L78.0781 18.7031H79.4844L76.3281 27.1406C75.9896 28.0521 75.7266 28.6797 75.5391 29.0234C75.2891 29.487 75.0026 29.8255 74.6797 30.0391C74.3568 30.2578 73.9714 30.3672 73.5234 30.3672C73.2526 30.3672 72.9505 30.3099 72.6172 30.1953Z" fill="white"/>
<rect x="159.5" y="1" width="123" height="40" rx="3" fill="white"/>
<path d="M183.219 23.3203L184.648 23.1953C184.716 23.7682 184.872 24.2396 185.117 24.6094C185.367 24.974 185.753 25.2708 186.273 25.5C186.794 25.724 187.38 25.8359 188.031 25.8359C188.609 25.8359 189.12 25.75 189.562 25.5781C190.005 25.4062 190.333 25.1719 190.547 24.875C190.766 24.5729 190.875 24.2448 190.875 23.8906C190.875 23.5312 190.771 23.2188 190.562 22.9531C190.354 22.6823 190.01 22.4557 189.531 22.2734C189.224 22.1536 188.544 21.9688 187.492 21.7188C186.44 21.4635 185.703 21.224 185.281 21C184.734 20.7135 184.326 20.3594 184.055 19.9375C183.789 19.5104 183.656 19.0339 183.656 18.5078C183.656 17.9297 183.82 17.3906 184.148 16.8906C184.477 16.3854 184.956 16.0026 185.586 15.7422C186.216 15.4818 186.917 15.3516 187.688 15.3516C188.536 15.3516 189.284 15.4896 189.93 15.7656C190.581 16.0365 191.081 16.4375 191.43 16.9688C191.779 17.5 191.966 18.1016 191.992 18.7734L190.539 18.8828C190.461 18.1589 190.195 17.612 189.742 17.2422C189.294 16.8724 188.63 16.6875 187.75 16.6875C186.833 16.6875 186.164 16.8568 185.742 17.1953C185.326 17.5286 185.117 17.9323 185.117 18.4062C185.117 18.8177 185.266 19.1562 185.562 19.4219C185.854 19.6875 186.615 19.9609 187.844 20.2422C189.078 20.5182 189.924 20.7604 190.383 20.9688C191.049 21.276 191.542 21.6667 191.859 22.1406C192.177 22.6094 192.336 23.151 192.336 23.7656C192.336 24.375 192.161 24.9505 191.812 25.4922C191.464 26.0286 190.961 26.4479 190.305 26.75C189.654 27.0469 188.919 27.1953 188.102 27.1953C187.065 27.1953 186.195 27.0443 185.492 26.7422C184.794 26.4401 184.245 25.987 183.844 25.3828C183.448 24.7734 183.24 24.0859 183.219 23.3203ZM199.906 24.3281L201.359 24.5078C201.13 25.3568 200.706 26.0156 200.086 26.4844C199.466 26.9531 198.674 27.1875 197.711 27.1875C196.497 27.1875 195.534 26.8151 194.82 26.0703C194.112 25.3203 193.758 24.2708 193.758 22.9219C193.758 21.526 194.117 20.4427 194.836 19.6719C195.555 18.901 196.487 18.5156 197.633 18.5156C198.742 18.5156 199.648 18.8932 200.352 19.6484C201.055 20.4036 201.406 21.4661 201.406 22.8359C201.406 22.9193 201.404 23.0443 201.398 23.2109H195.211C195.263 24.1224 195.521 24.8203 195.984 25.3047C196.448 25.7891 197.026 26.0312 197.719 26.0312C198.234 26.0312 198.674 25.8958 199.039 25.625C199.404 25.3542 199.693 24.9219 199.906 24.3281ZM195.289 22.0547H199.922C199.859 21.3568 199.682 20.8333 199.391 20.4844C198.943 19.9427 198.362 19.6719 197.648 19.6719C197.003 19.6719 196.458 19.888 196.016 20.3203C195.578 20.7526 195.336 21.3307 195.289 22.0547ZM208.547 23.9609L209.93 24.1406C209.779 25.0938 209.391 25.8411 208.766 26.3828C208.146 26.9193 207.383 27.1875 206.477 27.1875C205.341 27.1875 204.427 26.8177 203.734 26.0781C203.047 25.3333 202.703 24.2682 202.703 22.8828C202.703 21.987 202.852 21.2031 203.148 20.5312C203.445 19.8594 203.896 19.3568 204.5 19.0234C205.109 18.6849 205.771 18.5156 206.484 18.5156C207.385 18.5156 208.122 18.7448 208.695 19.2031C209.268 19.6562 209.635 20.3021 209.797 21.1406L208.43 21.3516C208.299 20.7943 208.068 20.375 207.734 20.0938C207.406 19.8125 207.008 19.6719 206.539 19.6719C205.831 19.6719 205.255 19.9271 204.812 20.4375C204.37 20.9427 204.148 21.7448 204.148 22.8438C204.148 23.9583 204.362 24.7682 204.789 25.2734C205.216 25.7786 205.773 26.0312 206.461 26.0312C207.013 26.0312 207.474 25.862 207.844 25.5234C208.214 25.1849 208.448 24.6641 208.547 23.9609ZM210.609 22.8516C210.609 21.3151 211.036 20.1771 211.891 19.4375C212.604 18.8229 213.474 18.5156 214.5 18.5156C215.641 18.5156 216.573 18.8906 217.297 19.6406C218.021 20.3854 218.383 21.4167 218.383 22.7344C218.383 23.8021 218.221 24.6432 217.898 25.2578C217.581 25.8672 217.115 26.3411 216.5 26.6797C215.891 27.0182 215.224 27.1875 214.5 27.1875C213.339 27.1875 212.398 26.8151 211.68 26.0703C210.966 25.3255 210.609 24.2526 210.609 22.8516ZM212.055 22.8516C212.055 23.9141 212.286 24.7109 212.75 25.2422C213.214 25.7682 213.797 26.0312 214.5 26.0312C215.198 26.0312 215.779 25.7656 216.242 25.2344C216.706 24.7031 216.938 23.8932 216.938 22.8047C216.938 21.7786 216.703 21.0026 216.234 20.4766C215.771 19.9453 215.193 19.6797 214.5 19.6797C213.797 19.6797 213.214 19.9427 212.75 20.4688C212.286 20.9948 212.055 21.7891 212.055 22.8516ZM220.039 27V18.7031H221.305V19.8828C221.914 18.9714 222.794 18.5156 223.945 18.5156C224.445 18.5156 224.904 18.6068 225.32 18.7891C225.742 18.9661 226.057 19.2005 226.266 19.4922C226.474 19.7839 226.62 20.1302 226.703 20.5312C226.755 20.7917 226.781 21.2474 226.781 21.8984V27H225.375V21.9531C225.375 21.3802 225.32 20.9531 225.211 20.6719C225.102 20.3854 224.906 20.1589 224.625 19.9922C224.349 19.8203 224.023 19.7344 223.648 19.7344C223.049 19.7344 222.531 19.9245 222.094 20.3047C221.661 20.6849 221.445 21.4062 221.445 22.4688V27H220.039ZM234.328 27V25.9531C233.802 26.776 233.029 27.1875 232.008 27.1875C231.346 27.1875 230.737 27.0052 230.18 26.6406C229.628 26.276 229.198 25.7682 228.891 25.1172C228.589 24.4609 228.438 23.7083 228.438 22.8594C228.438 22.0312 228.576 21.2812 228.852 20.6094C229.128 19.9323 229.542 19.4141 230.094 19.0547C230.646 18.6953 231.263 18.5156 231.945 18.5156C232.445 18.5156 232.891 18.6224 233.281 18.8359C233.672 19.0443 233.99 19.3177 234.234 19.6562V15.5469H235.633V27H234.328ZM229.883 22.8594C229.883 23.9219 230.107 24.7161 230.555 25.2422C231.003 25.7682 231.531 26.0312 232.141 26.0312C232.755 26.0312 233.276 25.7812 233.703 25.2812C234.135 24.776 234.352 24.0078 234.352 22.9766C234.352 21.8411 234.133 21.0078 233.695 20.4766C233.258 19.9453 232.719 19.6797 232.078 19.6797C231.453 19.6797 230.93 19.9349 230.508 20.4453C230.091 20.9557 229.883 21.7604 229.883 22.8594ZM243.266 25.9766C242.745 26.4193 242.242 26.7318 241.758 26.9141C241.279 27.0964 240.763 27.1875 240.211 27.1875C239.299 27.1875 238.599 26.9661 238.109 26.5234C237.62 26.0755 237.375 25.5052 237.375 24.8125C237.375 24.4062 237.466 24.0365 237.648 23.7031C237.836 23.3646 238.078 23.0938 238.375 22.8906C238.677 22.6875 239.016 22.5339 239.391 22.4297C239.667 22.3568 240.083 22.2865 240.641 22.2188C241.776 22.0833 242.612 21.9219 243.148 21.7344C243.154 21.5417 243.156 21.4193 243.156 21.3672C243.156 20.7943 243.023 20.3906 242.758 20.1562C242.398 19.8385 241.865 19.6797 241.156 19.6797C240.495 19.6797 240.005 19.7969 239.688 20.0312C239.375 20.2604 239.143 20.6693 238.992 21.2578L237.617 21.0703C237.742 20.4818 237.948 20.0078 238.234 19.6484C238.521 19.2839 238.935 19.0052 239.477 18.8125C240.018 18.6146 240.646 18.5156 241.359 18.5156C242.068 18.5156 242.643 18.599 243.086 18.7656C243.529 18.9323 243.854 19.1432 244.062 19.3984C244.271 19.6484 244.417 19.9661 244.5 20.3516C244.547 20.5911 244.57 21.0234 244.57 21.6484V23.5234C244.57 24.8307 244.599 25.6589 244.656 26.0078C244.719 26.3516 244.839 26.6823 245.016 27H243.547C243.401 26.7083 243.307 26.3672 243.266 25.9766ZM243.148 22.8359C242.638 23.0443 241.872 23.2214 240.852 23.3672C240.273 23.4505 239.865 23.5443 239.625 23.6484C239.385 23.7526 239.201 23.9062 239.07 24.1094C238.94 24.3073 238.875 24.5286 238.875 24.7734C238.875 25.1484 239.016 25.4609 239.297 25.7109C239.583 25.9609 240 26.0859 240.547 26.0859C241.089 26.0859 241.57 25.9688 241.992 25.7344C242.414 25.4948 242.724 25.1693 242.922 24.7578C243.073 24.4401 243.148 23.9714 243.148 23.3516V22.8359ZM246.742 27V18.7031H248.008V19.9609C248.331 19.3724 248.628 18.9844 248.898 18.7969C249.174 18.6094 249.477 18.5156 249.805 18.5156C250.279 18.5156 250.76 18.6667 251.25 18.9688L250.766 20.2734C250.422 20.0703 250.078 19.9688 249.734 19.9688C249.427 19.9688 249.151 20.0625 248.906 20.25C248.661 20.4323 248.487 20.6875 248.383 21.0156C248.227 21.5156 248.148 22.0625 248.148 22.6562V27H246.742ZM252.023 30.1953L251.867 28.875C252.174 28.9583 252.443 29 252.672 29C252.984 29 253.234 28.9479 253.422 28.8438C253.609 28.7396 253.763 28.5938 253.883 28.4062C253.971 28.2656 254.115 27.9167 254.312 27.3594C254.339 27.2812 254.38 27.1667 254.438 27.0156L251.289 18.7031H252.805L254.531 23.5078C254.755 24.1172 254.956 24.7578 255.133 25.4297C255.294 24.7839 255.487 24.1536 255.711 23.5391L257.484 18.7031H258.891L255.734 27.1406C255.396 28.0521 255.133 28.6797 254.945 29.0234C254.695 29.487 254.409 29.8255 254.086 30.0391C253.763 30.2578 253.378 30.3672 252.93 30.3672C252.659 30.3672 252.357 30.3099 252.023 30.1953Z" fill="#0F67F5"/>
<rect x="159.5" y="1" width="123" height="40" rx="3" stroke="#0F67F5" stroke-width="2"/>
</svg>

<svg width="284" height="42" fill="none" xmlns="http://www.w3.org/2000/svg"><rect x=".5" width="104" height="42" rx="4" fill="#0F67F5"/><path d="M25.73 27V15.55h4.32a11 11 0 0 1 1.75.1c.56.1 1.03.28 1.41.55.38.26.69.62.91 1.1.24.47.36 1 .36 1.56 0 .97-.31 1.8-.93 2.48-.62.67-1.74 1-3.36 1h-2.94V27h-1.52Zm1.52-6h2.96c.98 0 1.68-.19 2.09-.55a2 2 0 0 0 .61-1.54c0-.48-.12-.9-.36-1.23a1.68 1.68 0 0 0-.96-.68c-.25-.07-.72-.1-1.41-.1h-2.93V21Zm8.96 6v-8.3h1.27v1.26c.32-.59.62-.98.89-1.16.27-.2.58-.28.9-.28.48 0 .96.15 1.45.45l-.49 1.3a2 2 0 0 0-1.03-.3c-.3 0-.58.1-.83.28-.24.18-.41.44-.52.77-.15.5-.23 1.04-.23 1.64V27h-1.4Zm5.35-9.84v-1.61h1.4v1.61h-1.4Zm0 9.84v-8.3h1.4V27h-1.4Zm3.56 0v-8.3h1.26v1.17a2.92 2.92 0 0 1 2.51-1.35c.62 0 1.12.12 1.5.38a2 2 0 0 1 .84 1.07 2.98 2.98 0 0 1 2.57-1.45c.82 0 1.45.22 1.9.68.44.46.66 1.16.66 2.1V27h-1.4v-5.23c0-.56-.05-.96-.14-1.2a1.15 1.15 0 0 0-.5-.6 1.96 1.96 0 0 0-2.3.36c-.37.38-.57 1-.57 1.85V27h-1.4v-5.4c0-.62-.12-1.08-.35-1.4-.23-.3-.6-.47-1.12-.47-.4 0-.76.1-1.1.32-.34.2-.58.51-.73.91-.15.4-.23.98-.23 1.74V27h-1.4Zm18.74-1.02a4.31 4.31 0 0 1-3.05 1.21c-.92 0-1.62-.22-2.1-.67a2.22 2.22 0 0 1-.74-1.7 2.27 2.27 0 0 1 1-1.93c.3-.2.64-.36 1.01-.46.28-.07.7-.14 1.25-.21 1.14-.14 1.98-.3 2.51-.49l.01-.36c0-.58-.13-.98-.4-1.21-.36-.32-.9-.48-1.6-.48-.66 0-1.15.12-1.47.35-.31.23-.54.64-.7 1.23l-1.37-.19c.13-.59.33-1.06.62-1.42.28-.37.7-.64 1.24-.84.54-.2 1.17-.3 1.88-.3s1.29.09 1.73.26c.44.16.77.37.98.63.2.25.35.57.43.95.05.24.07.67.07 1.3v1.87c0 1.31.03 2.14.09 2.49.06.34.18.67.36.99h-1.47a2.9 2.9 0 0 1-.28-1.02Zm-.12-3.14c-.5.2-1.27.38-2.3.53a4.9 4.9 0 0 0-1.22.28 1.21 1.21 0 0 0-.75 1.12c0 .38.14.7.42.94.29.25.7.38 1.25.38.54 0 1.02-.12 1.45-.36.42-.24.73-.56.93-.97.15-.32.22-.79.22-1.4v-.52Zm3.6 4.16v-8.3h1.26v1.26c.32-.59.62-.98.9-1.16.27-.2.57-.28.9-.28.47 0 .95.15 1.44.45l-.48 1.3c-.34-.2-.69-.3-1.03-.3-.3 0-.59.1-.83.28-.24.18-.42.44-.52.77-.16.5-.24 1.04-.24 1.64V27h-1.4Zm5.28 3.2-.16-1.32c.3.08.58.12.8.12.32 0 .57-.05.76-.16.18-.1.34-.25.46-.43a6.9 6.9 0 0 0 .55-1.4l-3.15-8.3h1.52l1.72 4.8c.23.6.43 1.25.6 1.92.17-.65.36-1.28.58-1.9l1.78-4.83h1.4l-3.15 8.44c-.34.91-.6 1.54-.8 1.88-.24.47-.53.8-.85 1.02-.32.22-.7.33-1.16.33-.27 0-.57-.06-.9-.17Z" fill="#fff"/><rect x="159.5" y="1" width="123" height="40" rx="3" fill="#fff"/><path d="m183.22 23.32 1.43-.12c.07.57.22 1.04.47 1.4.25.37.63.67 1.15.9.52.22 1.11.34 1.76.34a4.2 4.2 0 0 0 1.53-.26c.44-.17.77-.4.99-.7a1.65 1.65 0 0 0 .02-1.93 2.3 2.3 0 0 0-1.04-.68c-.3-.12-.99-.3-2.04-.55-1.05-.26-1.79-.5-2.2-.72a3.14 3.14 0 0 1-1.23-1.06 2.88 2.88 0 0 1 .09-3.05c.33-.5.8-.89 1.44-1.15a5.46 5.46 0 0 1 2.1-.39c.85 0 1.6.14 2.24.42a3.22 3.22 0 0 1 2.06 3l-1.45.11a2.34 2.34 0 0 0-.8-1.64c-.45-.37-1.11-.55-1.99-.55-.92 0-1.59.17-2 .5a1.5 1.5 0 0 0-.63 1.22c0 .4.15.75.44 1.01.3.27 1.06.54 2.28.82a15 15 0 0 1 2.54.73c.67.3 1.16.7 1.48 1.17.32.47.48 1.01.48 1.63 0 .6-.18 1.18-.53 1.72-.35.54-.85.96-1.5 1.26a6.62 6.62 0 0 1-4.81 0 3.68 3.68 0 0 1-2.28-3.43Zm16.69 1 1.45.19c-.23.85-.65 1.5-1.27 1.97s-1.42.7-2.38.7a3.82 3.82 0 0 1-2.89-1.11 4.4 4.4 0 0 1-1.06-3.15c0-1.4.36-2.48 1.08-3.25a3.65 3.65 0 0 1 2.8-1.15c1.1 0 2 .37 2.71 1.13a4.5 4.5 0 0 1 1.06 3.19l-.01.37h-6.19c.05.91.31 1.61.77 2.1a2.3 2.3 0 0 0 1.74.72c.51 0 .95-.13 1.32-.4.36-.28.65-.7.87-1.3Zm-4.62-2.27h4.63a2.82 2.82 0 0 0-.53-1.57 2.16 2.16 0 0 0-1.74-.8c-.65 0-1.2.2-1.63.64a2.57 2.57 0 0 0-.73 1.73Zm13.26 1.91 1.38.18a3.6 3.6 0 0 1-1.16 2.24c-.62.54-1.39.8-2.3.8a3.58 3.58 0 0 1-2.74-1.1 4.6 4.6 0 0 1-1.03-3.2c0-.9.15-1.68.45-2.35a3.1 3.1 0 0 1 1.35-1.5c.6-.35 1.27-.51 1.98-.51.9 0 1.64.22 2.22.68.57.46.94 1.1 1.1 1.94l-1.37.21a2.26 2.26 0 0 0-.7-1.26 1.77 1.77 0 0 0-1.2-.42c-.7 0-1.28.26-1.72.77-.44.5-.66 1.3-.66 2.4 0 1.12.21 1.93.64 2.43.43.5.98.76 1.67.76a2 2 0 0 0 1.38-.5c.37-.35.6-.87.7-1.57Zm2.06-1.1c0-1.54.43-2.68 1.28-3.42a3.86 3.86 0 0 1 2.61-.92c1.14 0 2.07.37 2.8 1.12a4.25 4.25 0 0 1 1.08 3.1c0 1.06-.16 1.9-.48 2.52-.32.6-.78 1.08-1.4 1.42-.6.34-1.28.5-2 .5-1.16 0-2.1-.36-2.82-1.11-.71-.74-1.07-1.82-1.07-3.22Zm1.44 0c0 1.05.24 1.85.7 2.38.46.53 1.05.8 1.75.8s1.28-.27 1.74-.8c.47-.54.7-1.35.7-2.44 0-1.02-.24-1.8-.7-2.32a2.2 2.2 0 0 0-1.74-.8c-.7 0-1.29.26-1.75.79-.46.52-.7 1.32-.7 2.38Zm7.99 4.14v-8.3h1.27v1.18a2.98 2.98 0 0 1 2.63-1.36c.5 0 .96.09 1.38.27.42.18.74.41.95.7.2.3.35.64.43 1.04.06.26.08.72.08 1.37V27h-1.4v-5.05c0-.57-.06-1-.17-1.28a1.3 1.3 0 0 0-.59-.68 1.8 1.8 0 0 0-.97-.26c-.6 0-1.12.2-1.56.57-.43.38-.65 1.1-.65 2.17V27h-1.4Zm14.29 0v-1.05A2.58 2.58 0 0 1 232 27.2c-.66 0-1.27-.18-1.83-.55a3.64 3.64 0 0 1-1.29-1.52 5.4 5.4 0 0 1-.45-2.26c0-.83.14-1.58.41-2.25a3.26 3.26 0 0 1 3.1-2.1 2.74 2.74 0 0 1 2.28 1.15v-4.11h1.4V27h-1.3Zm-4.45-4.14c0 1.06.23 1.86.68 2.38a1.97 1.97 0 0 0 3.14.04c.44-.5.65-1.27.65-2.3 0-1.14-.22-1.97-.66-2.5a2.02 2.02 0 0 0-3.18-.03c-.42.5-.63 1.31-.63 2.4Zm13.39 3.12c-.53.44-1.03.75-1.51.93-.48.19-1 .28-1.55.28-.91 0-1.61-.22-2.1-.67a2.22 2.22 0 0 1-.74-1.7 2.28 2.28 0 0 1 1-1.93c.3-.2.65-.36 1.02-.46.28-.07.7-.14 1.25-.21 1.14-.14 1.97-.3 2.5-.49l.02-.36c0-.58-.14-.98-.4-1.21-.36-.32-.9-.48-1.6-.48-.66 0-1.16.12-1.47.35-.31.23-.55.64-.7 1.23l-1.37-.19c.12-.59.33-1.06.61-1.42.3-.37.7-.64 1.25-.84.54-.2 1.17-.3 1.88-.3.7 0 1.28.09 1.73.26.44.16.76.37.97.63.21.25.36.57.44.95.05.24.07.67.07 1.3v1.87c0 1.31.03 2.14.09 2.49.06.34.18.67.36.99h-1.47a2.9 2.9 0 0 1-.28-1.02Zm-.12-3.14c-.51.2-1.28.38-2.3.53a4.8 4.8 0 0 0-1.22.28 1.22 1.22 0 0 0-.75 1.12c0 .38.14.7.42.94.28.25.7.38 1.25.38.54 0 1.02-.12 1.44-.36.42-.24.73-.56.93-.97.15-.32.23-.79.23-1.4v-.52Zm3.6 4.16v-8.3H248v1.26c.32-.59.62-.98.89-1.16.27-.2.58-.28.9-.28.48 0 .96.15 1.45.45l-.48 1.3c-.35-.2-.7-.3-1.04-.3-.3 0-.58.1-.82.28-.25.18-.42.44-.53.77-.15.5-.23 1.04-.23 1.64V27h-1.4Zm5.27 3.2-.15-1.32c.3.08.57.12.8.12.31 0 .56-.05.75-.16.19-.1.34-.25.46-.43.1-.14.24-.5.43-1.05l.13-.34-3.15-8.32h1.52l1.72 4.8c.22.62.43 1.26.6 1.93.16-.65.36-1.28.58-1.9l1.77-4.83h1.41l-3.16 8.44c-.33.91-.6 1.54-.78 1.88-.25.47-.54.8-.86 1.02-.33.22-.71.33-1.16.33-.27 0-.57-.06-.9-.17Z" fill="#0F67F5"/><rect x="159.5" y="1" width="123" height="40" rx="3" stroke="#0F67F5" stroke-width="2"/></svg>
